images/02.svg

<svg width="99" height="54" viewBox="0 0 99 54" fill="none" xmlns="http://www.w3.org/2000/svg">
<path d="M25.2234 0.159998C30.3114 0.159998 34.6314 1.192 38.1834 3.256C41.7354 5.32 44.4354 8.344 46.2834 12.328C48.1554 16.312 49.0914 21.172 49.0914 26.908C49.0914 32.308 48.0834 37 46.0674 40.984C44.0754 44.944 41.2554 48.016 37.6074 50.2C33.9834 52.36 29.6994 53.44 24.7554 53.44C19.6914 53.44 15.3714 52.408 11.7954 50.344C8.24341 48.28 5.53141 45.256 3.65941 41.272C1.81141 37.288 0.887406 32.428 0.887406 26.692C0.887406 21.292 1.88341 16.612 3.87541 12.652C5.89141 8.668 8.72341 5.596 12.3714 3.436C16.0194 1.252 20.3034 0.159998 25.2234 0.159998ZM32.0994 28.6C32.0994 22.696 31.8234 17.98 31.2714 14.452C30.7434 10.924 29.9274 8.38 28.8234 6.82C27.7434 5.26 26.3634 4.48 24.6834 4.48C23.1474 4.48 21.8754 5.164 20.8674 6.532C19.8594 7.876 19.1034 10.06 18.5994 13.084C18.1194 16.084 17.8794 20.056 17.8794 25C17.8794 30.904 18.1434 35.62 18.6714 39.148C19.2234 42.676 20.0394 45.22 21.1194 46.78C22.2234 48.34 23.6154 49.12 25.2954 49.12C26.8314 49.12 28.1034 48.448 29.1114 47.104C30.1194 45.736 30.8634 43.552 31.3434 40.552C31.8474 37.528 32.0994 33.544 32.0994 28.6ZM60.7172 39.832L58.2692 37.96L64.8932 34.576C67.5092 33.232 69.7292 31.684 71.5532 29.932C73.3772 28.18 74.7572 26.128 75.6932 23.776C76.6532 21.424 77.1332 18.688 77.1332 15.568C77.1332 12.688 76.9652 10.396 76.6292 8.692C76.3172 6.964 75.8492 5.716 75.2252 4.948C74.6252 4.18 73.8932 3.796 73.0292 3.796C71.8292 3.796 70.9772 4.348 70.4732 5.452C69.9932 6.556 69.7532 8.08 69.7532 10.024V15.028C69.7532 17.236 69.0692 19 67.7012 20.32C66.3572 21.64 64.4732 22.3 62.0492 22.3C59.7692 22.3 57.9452 21.592 56.5772 20.176C55.2332 18.76 54.5612 16.768 54.5612 14.2C54.5612 11.752 55.2692 9.46 56.6852 7.324C58.1252 5.188 60.3332 3.46 63.3092 2.14C66.2852 0.819997 70.0892 0.159998 74.7212 0.159998C79.3052 0.159998 83.0612 0.795998 85.9892 2.068C88.9172 3.34 91.0772 5.104 92.4692 7.36C93.8852 9.592 94.5932 12.148 94.5932 15.028C94.5932 17.572 93.8732 19.924 92.4332 22.084C90.9932 24.244 88.7492 26.32 85.7012 28.312C82.6772 30.28 78.7892 32.26 74.0372 34.252L60.7172 39.832ZM53.4452 45.52C53.4452 42.688 54.5492 40.432 56.7572 38.752C58.9652 37.048 62.1692 36.196 66.3692 36.196C68.2652 36.196 70.0532 36.316 71.7332 36.556C73.4132 36.772 75.0572 37.024 76.6652 37.312C78.2732 37.6 79.9172 37.864 81.5972 38.104C83.2772 38.32 85.0532 38.428 86.9252 38.428C88.5332 38.428 89.8292 38.128 90.8132 37.528C91.8212 36.904 92.7332 35.932 93.5492 34.612C93.9332 33.988 94.3412 33.556 94.7732 33.316C95.2292 33.076 95.7212 32.98 96.2492 33.028C96.8732 33.076 97.3412 33.376 97.6532 33.928C97.9892 34.456 98.1092 35.308 98.0132 36.484C97.7012 40.564 96.9812 43.852 95.8532 46.348C94.7252 48.82 93.2252 50.62 91.3532 51.748C89.5052 52.876 87.3212 53.44 84.8012 53.44C82.7852 53.44 81.0212 53.152 79.5092 52.576C78.0212 52.024 76.7372 51.1 75.6572 49.804C74.6012 48.508 73.6892 46.756 72.9212 44.548C72.5372 43.372 72.1772 42.604 71.8412 42.244C71.5292 41.884 71.1092 41.704 70.5812 41.704C70.0052 41.704 69.5252 41.98 69.1412 42.532C68.7572 43.06 68.5052 43.936 68.3852 45.16C68.2172 47.2 67.7852 48.832 67.0892 50.056C66.3932 51.256 65.4572 52.12 64.2812 52.648C63.1292 53.176 61.7492 53.44 60.1412 53.44C58.1972 53.44 56.5892 52.732 55.3172 51.316C54.0692 49.876 53.4452 47.944 53.4452 45.52Z" fill="#FDD6BA"/>
</svg>

<svg width="99" height="54" fill="none" xmlns="http://www.w3.org/2000/svg"><path d="M25.223.16c5.088 0 9.408 1.032 12.96 3.096 3.552 2.064 6.252 5.088 8.1 9.072 1.872 3.984 2.808 8.844 2.808 14.58 0 5.4-1.008 10.092-3.024 14.076-1.992 3.96-4.812 7.032-8.46 9.216-3.624 2.16-7.908 3.24-12.852 3.24-5.064 0-9.384-1.032-12.96-3.096-3.552-2.064-6.264-5.088-8.136-9.072C1.811 37.288.887 32.428.887 26.692c0-5.4.996-10.08 2.988-14.04 2.016-3.984 4.848-7.056 8.496-9.216C16.02 1.252 20.303.16 25.223.16ZM32.1 28.6c0-5.904-.276-10.62-.828-14.148-.528-3.528-1.344-6.072-2.448-7.632-1.08-1.56-2.46-2.34-4.14-2.34-1.536 0-2.808.684-3.816 2.052-1.008 1.344-1.764 3.528-2.268 6.552-.48 3-.72 6.972-.72 11.916 0 5.904.264 10.62.792 14.148.552 3.528 1.368 6.072 2.448 7.632 1.104 1.56 2.496 2.34 4.176 2.34 1.536 0 2.808-.672 3.816-2.016 1.008-1.368 1.752-3.552 2.232-6.552.504-3.024.756-7.008.756-11.952Zm28.618 11.232L58.27 37.96l6.624-3.384c2.616-1.344 4.836-2.892 6.66-4.644a17.319 17.319 0 0 0 4.14-6.156c.96-2.352 1.44-5.088 1.44-8.208 0-2.88-.168-5.172-.504-6.876-.312-1.728-.78-2.976-1.404-3.744-.6-.768-1.332-1.152-2.196-1.152-1.2 0-2.052.552-2.556 1.656-.48 1.104-.72 2.628-.72 4.572v5.004c0 2.208-.684 3.972-2.052 5.292-1.344 1.32-3.228 1.98-5.652 1.98-2.28 0-4.104-.708-5.472-2.124-1.344-1.416-2.016-3.408-2.016-5.976 0-2.448.708-4.74 2.124-6.876 1.44-2.136 3.648-3.864 6.624-5.184C66.285.82 70.09.16 74.721.16c4.584 0 8.34.636 11.268 1.908 2.928 1.272 5.088 3.036 6.48 5.292 1.416 2.232 2.124 4.788 2.124 7.668 0 2.544-.72 4.896-2.16 7.056-1.44 2.16-3.684 4.236-6.732 6.228-3.024 1.968-6.912 3.948-11.664 5.94l-13.32 5.58Zm-7.272 5.688c0-2.832 1.104-5.088 3.312-6.768 2.208-1.704 5.412-2.556 9.612-2.556 1.896 0 3.684.12 5.364.36 1.68.216 3.324.468 4.932.756 1.608.288 3.252.552 4.932.792 1.68.216 3.456.324 5.328.324 1.608 0 2.904-.3 3.888-.9 1.008-.624 1.92-1.596 2.736-2.916.384-.624.792-1.056 1.224-1.296.456-.24.948-.336 1.476-.288.624.048 1.092.348 1.404.9.336.528.456 1.38.36 2.556-.312 4.08-1.032 7.368-2.16 9.864-1.128 2.472-2.628 4.272-4.5 5.4-1.848 1.128-4.032 1.692-6.552 1.692-2.016 0-3.78-.288-5.292-.864-1.488-.552-2.772-1.476-3.852-2.772-1.056-1.296-1.968-3.048-2.736-5.256-.384-1.176-.744-1.944-1.08-2.304-.312-.36-.732-.54-1.26-.54-.576 0-1.056.276-1.44.828-.384.528-.636 1.404-.756 2.628-.168 2.04-.6 3.672-1.296 4.896-.696 1.2-1.632 2.064-2.808 2.592-1.152.528-2.532.792-4.14.792-1.944 0-3.552-.708-4.824-2.124-1.248-1.44-1.872-3.372-1.872-5.796Z" fill="#FDD6BA"/></svg>
